X:1
T:Abbotts Bromley Horn Dance
C:Traditional
M:6/8
L:1/8
Q:3/8=100
K:D
A|D2F A2d|d2A F2D|DEF GAB|AGF E2D|F2A d2f|f2d A2F|GAB cde|e2c B2D|]
